svg/redis.svg

<svg viewBox="0 0 20 20" xmlns="http://www.w3.org/2000/svg">
<rect width="100%" height="100%" fill="#A32422"/>
<path d="M17.3122 5.63857C17.7308 5.79178 17.9502 5.93477 17.9502 6.08797L18 6.1084V7.73234C18 7.89576 17.8106 8.0796 17.372 8.31451C16.9578 8.53415 15.6935 9.0905 14.3984 9.66038C13.0438 10.2565 11.6555 10.8674 11.1713 11.1232C10.8546 11.3536 10.4811 11.4882 10.0933 11.5117C9.70559 11.5351 9.3192 11.4465 8.97819 11.256C8.73398 11.1465 8.12519 10.8905 7.37368 10.5745C5.67105 9.85854 3.23585 8.83452 2.64798 8.50857C2.21931 8.3043 2 8.13067 2 7.95704V6.34331C2 6.17989 2.19938 6.01647 2.61807 5.85306L9.09782 3.27926C9.43178 3.1066 9.79883 3.01159 10.1728 3.001C10.5467 2.9904 10.9183 3.06449 11.2611 3.21798C11.702 3.38468 13.1267 3.95912 14.4978 4.51193C15.7308 5.00904 16.9204 5.48866 17.3122 5.63857Z" fill="white"/>
<path d="M17.3221 12.1446C17.7508 11.9199 17.9502 11.736 17.9502 11.5828V13.217C17.9502 13.3804 17.7607 13.5642 17.3221 13.7992C16.908 14.0188 15.6436 14.5752 14.3486 15.145C12.9939 15.7411 11.6057 16.352 11.1215 16.6079C10.8048 16.8382 10.4312 16.9728 10.0435 16.9963C9.65575 17.0198 9.26935 16.9312 8.92835 16.7406C8.57309 16.5708 7.32881 16.0412 6.02966 15.4883C4.59465 14.8775 3.0927 14.2383 2.64798 14.0239C2.21931 13.8196 2 13.646 2 13.4723V11.828C2 12.0424 2.21931 12.165 2.69782 12.3897C3.16242 12.6193 4.78081 13.3064 6.27133 13.9392C7.49929 14.4605 8.64047 14.945 8.97819 15.1065C9.31503 15.2839 9.69288 15.3635 10.0707 15.3365C10.4486 15.3095 10.812 15.1769 11.1215 14.9533C11.6057 14.6974 12.9939 14.0865 14.3486 13.4904C15.6436 12.9206 16.908 12.3642 17.3221 12.1446Z" fill="white"/>
<path d="M17.3221 9.51426C17.7508 9.30855 17.9502 9.1496 17.9502 9L18 9.00935V10.5428C18 10.6924 17.8106 10.8513 17.372 11.0664C16.9578 11.2675 15.6935 11.7768 14.3984 12.2985C13.0438 12.8442 11.6555 13.4034 11.1713 13.6377C10.8556 13.8506 10.4818 13.9751 10.0936 13.9966C9.7053 14.0182 9.31851 13.9358 8.97819 13.7592C8.578 13.5762 7.19883 13.0377 5.81689 12.4981C4.44487 11.9624 3.07012 11.4257 2.64798 11.2347C2.21931 11.0477 2 10.8887 2 10.7391V9.2244C2 9.374 2.21931 9.53296 2.64798 9.72931C3.0927 9.9256 4.59463 10.5108 6.02962 11.0699C7.32879 11.5761 8.57309 12.0609 8.92835 12.2164C9.27002 12.3888 9.65603 12.4687 10.0433 12.4472C10.4306 12.4257 10.8038 12.3038 11.1215 12.0949C11.5907 11.8679 12.9087 11.3358 14.2225 10.8054C15.5608 10.2651 16.8945 9.72657 17.3221 9.51426Z" fill="white"/>
</svg>

<svg xmlns="http://www.w3.org/2000/svg" viewBox="0 0 20 20">
  <rect width="100%" height="100%" fill="#A32422"/>
  <path fill="#fff" d="M17.31 5.64c.42.15.64.3.64.45l.05.02v1.62c0 .17-.19.35-.63.58-.41.22-1.68.78-2.97 1.35-1.36.6-2.74 1.2-3.23 1.46a2.04 2.04 0 0 1-2.2.14l-1.6-.69a96.53 96.53 0 0 1-4.72-2.06C2.22 8.3 2 8.13 2 7.96V6.34c0-.16.2-.32.62-.49L9.1 3.28a2.5 2.5 0 0 1 2.16-.06c.44.16 1.87.74 3.24 1.3l2.81 1.12ZM17.32 12.14c.43-.22.63-.4.63-.56v1.64c0 .16-.19.34-.63.58-.41.22-1.68.78-2.97 1.34-1.36.6-2.74 1.21-3.23 1.47a2.04 2.04 0 0 1-2.2.13c-.35-.17-1.6-.7-2.89-1.25-1.44-.61-2.94-1.25-3.38-1.47-.43-.2-.65-.37-.65-.55v-1.64c0 .21.22.33.7.56.46.23 2.08.92 3.57 1.55 1.23.52 2.37 1 2.7 1.17a2.03 2.03 0 0 0 2.15-.16c.49-.25 1.87-.86 3.23-1.46 1.3-.57 2.56-1.13 2.97-1.35Z"/>
  <path fill="#fff" d="M17.32 9.51c.43-.2.63-.36.63-.51H18v1.54c0 .15-.19.31-.63.53-.41.2-1.68.7-2.97 1.23-1.36.54-2.74 1.1-3.23 1.34a2.14 2.14 0 0 1-2.2.12c-.4-.18-1.77-.72-3.15-1.26s-2.75-1.07-3.17-1.27c-.43-.18-.65-.34-.65-.5v-1.5c0 .14.22.3.65.5.44.2 1.94.78 3.38 1.34 1.3.5 2.54 1 2.9 1.15a2.2 2.2 0 0 0 2.2-.13c.46-.22 1.78-.75 3.1-1.28a75.58 75.58 0 0 0 3.1-1.3Z"/>
</svg>
